sources/design/Outline/Oslash.svg

<svg:svg xmlns:cc="http://creativecommons.org/ns#" xmlns:dc="http://purl.org/dc/elements/1.1/" xmlns:inkscape="http://www.inkscape.org/namespaces/inkscape" xmlns:rdf="http://www.w3.org/1999/02/22-rdf-syntax-ns#" xmlns:sodipodi="http://sodipodi.sourceforge.net/DTD/sodipodi-0.dtd" xmlns:svg="http://www.w3.org/2000/svg" xml:space="preserve" width="1000" height="1000" version="1.1" style="clip-rule:evenodd;fill-rule:evenodd;image-rendering:optimizeQuality;shape-rendering:geometricPrecision;text-rendering:geometricPrecision" viewBox="0 0 1000 1000" id="svg10" sodipodi:docname="Oslash.svg" inkscape:version="1.0.2 (e86c870879, 2021-01-15)"><svg:metadata id="metadata14"><rdf:RDF><cc:Work rdf:about=""><dc:format>image/svg+xml</dc:format><dc:type rdf:resource="http://purl.org/dc/dcmitype/StillImage" /><dc:title /></cc:Work></rdf:RDF></svg:metadata><sodipodi:namedview pagecolor="#ffffff" bordercolor="#666666" borderopacity="1" objecttolerance="10" gridtolerance="10" guidetolerance="10" inkscape:pageopacity="0" inkscape:pageshadow="2" inkscape:window-width="1920" inkscape:window-height="1007" id="namedview12" showgrid="false" inkscape:zoom="0.84890884" inkscape:cx="467.64621" inkscape:cy="408.43364" inkscape:window-x="1920" inkscape:window-y="0" inkscape:window-maximized="1" inkscape:current-layer="svg10" showguides="true" inkscape:guide-bbox="true" inkscape:document-rotation="0" inkscape:pagecheckerboard="0"><sodipodi:guide position="0,1000" orientation="0,1" id="guide16" inkscape:label="" inkscape:locked="true" inkscape:color="rgb(0,0,255)" /><sodipodi:guide position="1763.3122,2036.1693" orientation="1000,0" id="guide18" /><sodipodi:guide position="0,200" orientation="0,1" id="guide20" inkscape:label="base" inkscape:locked="true" inkscape:color="rgb(0,0,255)" /><inkscape:grid type="xygrid" id="grid24" originx="-473.37552" originy="-489.69235" /><sodipodi:guide position="0,0" orientation="0,1" id="guide34" inkscape:label="bottom" inkscape:locked="true" inkscape:color="rgb(0,0,255)" /><sodipodi:guide position="225.05109,1693.3186" orientation="0,1" id="guide44" inkscape:label="" inkscape:locked="false" inkscape:color="rgb(0,0,255)" /><sodipodi:guide position="0,900" orientation="0,1" id="guide46" inkscape:label="" inkscape:locked="true" inkscape:color="rgb(0,0,255)" /><sodipodi:guide position="638.03816,545.52505" orientation="1,0" id="guide841" inkscape:label="width" />    </sodipodi:namedview>
 <svg:defs id="defs4"><inkscape:path-effect effect="spiro" id="path-effect863" is_visible="true" lpeversion="1" /><inkscape:path-effect effect="fillet_chamfer" id="path-effect861" is_visible="true" lpeversion="1" satellites_param="F,0,0,1,0,29.323578,0,1 @ F,0,0,1,0,29.323578,0,1 @ F,0,0,1,0,0,0,1 @ F,0,1,1,0,21.0286,0,1 @ F,0,1,1,0,21.0286,0,1 @ F,0,0,1,0,0,0,1" unit="px" method="auto" mode="F" radius="0" chamfer_steps="1" flexible="false" use_knot_distance="true" apply_no_radius="true" apply_with_radius="true" only_selected="true" hide_knots="false" /><inkscape:path-effect effect="fillet_chamfer" id="path-effect859" is_visible="true" lpeversion="1" satellites_param="F,0,0,1,0,0,0,1 @ F,0,0,1,0,0,0,1 @ F,0,0,1,0,0,0,1 @ F,0,0,1,0,0,0,1 @ F,0,0,1,0,0,0,1 @ F,0,0,1,0,0,0,1 @ F,0,0,1,0,0,0,1 @ F,0,0,1,0,0,0,1 | F,0,0,1,0,0,0,1 @ F,0,0,1,0,0,0,1 @ F,0,0,1,0,0,0,1 @ F,0,0,1,0,0,0,1 @ F,0,0,1,0,0,0,1 @ F,0,0,1,0,0,0,1 @ F,0,0,1,0,0,0,1 @ F,0,0,1,0,0,0,1" unit="px" method="auto" mode="F" radius="0" chamfer_steps="1" flexible="false" use_knot_distance="true" apply_no_radius="true" apply_with_radius="true" only_selected="true" hide_knots="false" /><inkscape:path-effect effect="spiro" id="path-effect858" is_visible="true" lpeversion="1" /><inkscape:path-effect effect="spiro" id="path-effect137" is_visible="true" lpeversion="1" /><inkscape:path-effect effect="spiro" id="path-effect133" is_visible="true" lpeversion="1" /><inkscape:path-effect effect="spiro" id="path-effect114" is_visible="true" lpeversion="1" /><inkscape:path-effect effect="spiro" id="path-effect853" is_visible="true" lpeversion="1" /><inkscape:path-effect effect="spiro" id="path-effect928" is_visible="true" lpeversion="1" /><inkscape:path-effect effect="spiro" id="path-effect921" is_visible="true" lpeversion="1" /><inkscape:path-effect effect="spiro" id="path-effect917" is_visible="true" lpeversion="1" /><inkscape:path-effect effect="spiro" id="path-effect849" is_visible="true" lpeversion="1" /><inkscape:path-effect effect="spiro" id="path-effect851" is_visible="true" lpeversion="1" />
  <svg:style type="text/css" id="style2">
   
    .fil0 {fill:#EF7F1A;fill-rule:nonzero}
   
  </svg:style>
 <inkscape:path-effect effect="spiro" id="path-effect1214" is_visible="true" lpeversion="1" /><inkscape:path-effect effect="spiro" id="path-effect1195" is_visible="true" lpeversion="1" /><inkscape:path-effect effect="spiro" id="path-effect992" is_visible="true" lpeversion="1" /><inkscape:path-effect effect="spiro" id="path-effect1060" is_visible="true" lpeversion="1" /><inkscape:path-effect effect="spiro" id="path-effect1047" is_visible="true" lpeversion="1" /><inkscape:path-effect effect="spiro" id="path-effect1085" is_visible="true" lpeversion="1" /><inkscape:path-effect effect="spiro" id="path-effect1286" is_visible="true" lpeversion="1" /><inkscape:path-effect effect="spiro" id="path-effect117" is_visible="true" lpeversion="1" /></svg:defs>
 
<svg:g id="path135"><svg:path style="color:#000000;clip-rule:nonzero;fill:#1a5fb4;fill-rule:nonzero;stroke-linecap:round;stroke-linejoin:round;-inkscape-stroke:none;paint-order:fill stroke markers;shape-rendering:auto" d="M 318.51562,-30.0 C 265.45653000000004,-29.79402 213.55056000000002,-14.587633 168.25586,11.470703 C 123.02547000000001,37.492041 84.80198500000002,73.917383 55.195312000000015,115.89453 C -3.9770718999999843,199.79075 -27.198538999999982,302.76164 -26.855468999999985,402.26562 C -26.525385999999987,498.00278000000003 -4.439072699999986,596.83168 51.230469000000014,678.45898 C 79.08327700000001,719.29908 115.01188000000002,755.13704 157.73828000000003,781.53125 C 200.52151000000003,807.96056 249.76195,824.54015 300.75586000000004,827.27539 C 354.91529,830.18042 408.77086,817.32744 456.21484000000004,792.7578100000001 C 503.58887000000004,768.22442 544.09544,732.4450200000001 575.7168,690.49805 C 638.9165,606.66114 664.82862,501.50807000000003 665.35937,399.69141 C 665.87805,300.19147 642.25545,197.25536 582.61133,113.77539 C 552.77022,72.00874 514.30881,35.891087 468.92383,10.244141 C 423.47524,-15.43875 371.50756,-30.20572 318.51562,-30.0 M 318.74805000000003,30.0 C 360.36126,29.838454 402.49027,41.619333 439.40625,62.480469 C 476.38584000000003,83.377548 508.63408,113.44574 533.79102,148.65625 C 584.14299,219.13060000000002 605.82702,309.66775 605.35937,399.37694999999997 C 604.88099,491.14771999999994 581.14064,583.62925 527.80664,654.3789099999999 C 501.16114000000005,689.72521 467.20216,719.4997099999999 428.62305000000003,739.4785199999999 C 390.11390000000006,759.4210899999999 346.46541,769.6407899999999 303.96875,767.3613299999998 C 263.93571,765.21401 224.04159,751.96358 189.27148,730.48437 C 154.44456,708.97006 124.30969,679.12501 100.80078,644.6543 C 53.746885,575.65997 33.443033,488.63596 33.144531,402.05859 C 32.834408,312.11048 54.20417,221.39968 104.22656,150.47656 C 129.21728,115.04404 161.2999,84.694574 198.17773,63.478516 C 234.99126,42.299455 277.08124,30.161755 318.74805,30.0 L 318.74805000000003,30.0 M 318.29102000000006,99.539062 C 242.27178000000006,100.80548 171.86479000000006,140.50355000000002 126.02539000000007,198.75195000000002 C 80.48899600000007,256.61532 59.76366900000008,329.78553 60.13867200000007,401.40625 C 60.49830600000007,470.0919 80.21844600000007,540.0511300000001 122.98047000000007,596.26953 C 166.00752000000006,652.83635 231.89317000000005,692.8569200000001 304.6503900000001,697.8144500000001 C 343.96089000000006,700.4929900000001 383.25074000000006,692.8502800000001 418.70312000000007,676.9023400000001 C 454.1136900000001,660.9732200000001 485.24976000000004,637.0316300000001 510.27148000000005,608.0390600000001 C 560.34473,550.0194100000001 584.07001,474.07542000000007 584.36719,399.4628900000001 C 584.65671,326.77322 562.77062,252.62009 515.5,194.82422 C 491.87835,165.94298 462.33263,141.68517 428.45117,124.86328 C 394.5319,108.02262 356.66844,98.899726 318.29102,99.539062 L 318.29102000000006,99.539062 M 319.29102000000006,159.5293 C 347.4300400000001,159.06052 376.1011000000001,165.86226 401.76758000000007,178.60547 C 427.47186000000005,191.36745 450.56074000000007,210.19441 469.0566400000001,232.80858999999998 C 506.0211100000001,278.00356 524.6076,338.86397 524.36719,399.22461 C 524.1205500000001,461.14883 503.98290000000003,523.49205 464.84766,568.83789 C 445.26514000000003,591.5280700000001 420.93692000000004,610.1058 394.08789,622.18359 C 367.28068,634.24257 337.52901,639.91553 308.72852,637.95312 C 255.78003,634.34532 203.98881,603.66171 170.73633,559.9453100000001 C 137.21882,515.88049 120.43679,458.40160000000003 120.13672000000001,401.09180000000003 C 119.82405000000001,341.37534000000005 137.48839,281.20561000000004 173.17578,235.85742000000005 C 208.56017,190.89427000000006 263.98949,160.45057000000003 319.29102,159.52930000000003 L 319.29102000000006,159.5293" id="path2623" /></svg:g><svg:g id="path856"><svg:path style="color:#000000;clip-rule:nonzero;fill:#1a5fb4;fill-rule:nonzero;stroke-linecap:round;stroke-linejoin:round;-inkscape-stroke:none;paint-order:fill stroke markers;shape-rendering:auto" d="M 514.73047,-19.398437 C 493.63458,-18.966461 473.17025,-7.2812184 463.03711,12.423828 C 402.04195,131.03585 333.05692,245.54522 256.70508,354.9043 C 176.1476,470.28712 87.380656,579.94635 -8.6894531,682.77344 C -18.061585,692.80475 -23.229625,707.10691 -21.578125,721.0 C -19.926625,734.89309 -11.494115,747.65791 0.048828119999999586,755.18555 L 89.6875,813.64258 C 112.83111,828.73551 148.14260000000002,818.3851199999999 159.64844,793.41797 C 218.52489,665.6587 289.13831,543.29338 370.30273,428.39844 C 449.87047,315.76375 539.59405,210.28818 638.00195,113.67578 C 649.21557,102.66676 656.29141,86.154781 653.97266,69.609375 C 651.65391,53.063969 640.18686,39.016825 626.24414,31.597656 L 542.97852,-12.708984000000001 C 534.0392,-17.465753 524.31951,-19.594791 514.73047,-19.398437 M 515.88281,40.837891 L 587.7695299999999,79.091797 C 490.03324,175.99449 400.70911,281.36668 321.29687,393.78125 C 240.64644,507.94859 170.26942,629.32684 111.03125,755.93164 L 45.078125,712.91992 C 139.25624,611.13403 226.51587,502.95474 305.90039,389.25195 C 383.58487,277.98414 453.77998,161.49596 515.88281,40.837891" id="path2629" /></svg:g></svg:svg>

<svg:svg xmlns:cc="http://creativecommons.org/ns#" xmlns:dc="http://purl.org/dc/elements/1.1/" xmlns:inkscape="http://www.inkscape.org/namespaces/inkscape" xmlns:rdf="http://www.w3.org/1999/02/22-rdf-syntax-ns#" xmlns:sodipodi="http://sodipodi.sourceforge.net/DTD/sodipodi-0.dtd" xmlns:svg="http://www.w3.org/2000/svg" xml:space="preserve" width="1000" height="1000" version="1.1" style="clip-rule:evenodd;fill-rule:evenodd;image-rendering:optimizeQuality;shape-rendering:geometricPrecision;text-rendering:geometricPrecision" viewBox="0 0 1000 1000" id="svg10" sodipodi:docname="Oslash.svg" inkscape:version="1.0.2 (e86c870879, 2021-01-15)"><svg:metadata id="metadata14"><rdf:RDF><cc:Work rdf:about=""><dc:format>image/svg+xml</dc:format><dc:type rdf:resource="http://purl.org/dc/dcmitype/StillImage" /><dc:title /></cc:Work></rdf:RDF></svg:metadata><sodipodi:namedview pagecolor="#ffffff" bordercolor="#666666" borderopacity="1" objecttolerance="10" gridtolerance="10" guidetolerance="10" inkscape:pageopacity="0" inkscape:pageshadow="2" inkscape:window-width="1920" inkscape:window-height="1007" id="namedview12" showgrid="false" inkscape:zoom="0.84890884" inkscape:cx="467.64621" inkscape:cy="408.43364" inkscape:window-x="1920" inkscape:window-y="0" inkscape:window-maximized="1" inkscape:current-layer="svg10" showguides="true" inkscape:guide-bbox="true" inkscape:document-rotation="0" inkscape:pagecheckerboard="0"><sodipodi:guide position="0,1000" orientation="0,1" id="guide16" inkscape:label="" inkscape:locked="true" inkscape:color="rgb(0,0,255)" /><sodipodi:guide position="1763.3122,2036.1693" orientation="1000,0" id="guide18" /><sodipodi:guide position="0,200" orientation="0,1" id="guide20" inkscape:label="base" inkscape:locked="true" inkscape:color="rgb(0,0,255)" /><inkscape:grid type="xygrid" id="grid24" originx="-473.37552" originy="-489.69235" /><sodipodi:guide position="0,0" orientation="0,1" id="guide34" inkscape:label="bottom" inkscape:locked="true" inkscape:color="rgb(0,0,255)" /><sodipodi:guide position="225.05109,1693.3186" orientation="0,1" id="guide44" inkscape:label="" inkscape:locked="false" inkscape:color="rgb(0,0,255)" /><sodipodi:guide position="0,900" orientation="0,1" id="guide46" inkscape:label="" inkscape:locked="true" inkscape:color="rgb(0,0,255)" /><sodipodi:guide position="638.03816,545.52505" orientation="1,0" id="guide841" inkscape:label="width" />    </sodipodi:namedview>
 <svg:defs id="defs4"><inkscape:path-effect effect="spiro" id="path-effect863" is_visible="true" lpeversion="1" /><inkscape:path-effect effect="fillet_chamfer" id="path-effect861" is_visible="true" lpeversion="1" satellites_param="F,0,0,1,0,29.323578,0,1 @ F,0,0,1,0,29.323578,0,1 @ F,0,0,1,0,0,0,1 @ F,0,1,1,0,21.0286,0,1 @ F,0,1,1,0,21.0286,0,1 @ F,0,0,1,0,0,0,1" unit="px" method="auto" mode="F" radius="0" chamfer_steps="1" flexible="false" use_knot_distance="true" apply_no_radius="true" apply_with_radius="true" only_selected="true" hide_knots="false" /><inkscape:path-effect effect="fillet_chamfer" id="path-effect859" is_visible="true" lpeversion="1" satellites_param="F,0,0,1,0,0,0,1 @ F,0,0,1,0,0,0,1 @ F,0,0,1,0,0,0,1 @ F,0,0,1,0,0,0,1 @ F,0,0,1,0,0,0,1 @ F,0,0,1,0,0,0,1 @ F,0,0,1,0,0,0,1 @ F,0,0,1,0,0,0,1 | F,0,0,1,0,0,0,1 @ F,0,0,1,0,0,0,1 @ F,0,0,1,0,0,0,1 @ F,0,0,1,0,0,0,1 @ F,0,0,1,0,0,0,1 @ F,0,0,1,0,0,0,1 @ F,0,0,1,0,0,0,1 @ F,0,0,1,0,0,0,1" unit="px" method="auto" mode="F" radius="0" chamfer_steps="1" flexible="false" use_knot_distance="true" apply_no_radius="true" apply_with_radius="true" only_selected="true" hide_knots="false" /><inkscape:path-effect effect="spiro" id="path-effect858" is_visible="true" lpeversion="1" /><inkscape:path-effect effect="spiro" id="path-effect137" is_visible="true" lpeversion="1" /><inkscape:path-effect effect="spiro" id="path-effect133" is_visible="true" lpeversion="1" /><inkscape:path-effect effect="spiro" id="path-effect114" is_visible="true" lpeversion="1" /><inkscape:path-effect effect="spiro" id="path-effect853" is_visible="true" lpeversion="1" /><inkscape:path-effect effect="spiro" id="path-effect928" is_visible="true" lpeversion="1" /><inkscape:path-effect effect="spiro" id="path-effect921" is_visible="true" lpeversion="1" /><inkscape:path-effect effect="spiro" id="path-effect917" is_visible="true" lpeversion="1" /><inkscape:path-effect effect="spiro" id="path-effect849" is_visible="true" lpeversion="1" /><inkscape:path-effect effect="spiro" id="path-effect851" is_visible="true" lpeversion="1" />
  <svg:style type="text/css" id="style2">
   
    .fil0 {fill:#EF7F1A;fill-rule:nonzero}
   
  </svg:style>
 <inkscape:path-effect effect="spiro" id="path-effect1214" is_visible="true" lpeversion="1" /><inkscape:path-effect effect="spiro" id="path-effect1195" is_visible="true" lpeversion="1" /><inkscape:path-effect effect="spiro" id="path-effect992" is_visible="true" lpeversion="1" /><inkscape:path-effect effect="spiro" id="path-effect1060" is_visible="true" lpeversion="1" /><inkscape:path-effect effect="spiro" id="path-effect1047" is_visible="true" lpeversion="1" /><inkscape:path-effect effect="spiro" id="path-effect1085" is_visible="true" lpeversion="1" /><inkscape:path-effect effect="spiro" id="path-effect1286" is_visible="true" lpeversion="1" /><inkscape:path-effect effect="spiro" id="path-effect117" is_visible="true" lpeversion="1" /></svg:defs>
 
<svg:g id="path135"><svg:path style="color:#000000;clip-rule:nonzero;fill:#1a5fb4;fill-rule:nonzero;stroke-linecap:round;stroke-linejoin:round;-inkscape-stroke:none;shape-rendering:auto" d="m 318.51562,-30 c -53.05909,0.20598 -104.96506,15.412367 -150.25976,41.470703 -45.23039,26.021338 -83.453875,62.44668 -113.060548,104.423827 -59.1723839,83.89622 -82.393851,186.86711 -82.050781,286.37109 0.330083,95.73716 22.4163963,194.56606 78.085938,276.19336 27.852808,40.8401 63.781411,76.67806 106.507811,103.07227 42.78323,26.42931 92.02367,43.0089 143.01758,45.74414 54.15943,2.90503 108.015,-9.94795 155.45898,-34.51758 47.37403,-24.53339 87.8806,-60.31279 119.50196,-102.25976 63.1997,-83.83691 89.11182,-188.98998 89.64257,-290.80664 C 665.87805,300.19147 642.25545,197.25536 582.61133,113.77539 552.77022,72.00874 514.30881,35.891087 468.92383,10.244141 423.47524,-15.43875 371.50756,-30.20572 318.51562,-30 Z m 0.23243,60 c 41.61321,-0.161546 83.74222,11.619333 120.6582,32.480469 36.97959,20.897079 69.22783,50.965271 94.38477,86.175781 50.35197,70.47435 72.036,161.0115 71.56835,250.7207 -0.47838,91.77077 -24.21873,184.2523 -77.55273,255.00196 -26.6455,35.3463 -60.60448,65.1208 -99.18359,85.09961 -38.50915,19.94257 -82.15764,30.16227 -124.6543,27.88281 C 263.93571,765.21401 224.04159,751.96358 189.27148,730.48437 154.44456,708.97006 124.30969,679.12501 100.80078,644.6543 53.746885,575.65997 33.443033,488.63596 33.144531,402.05859 32.834408,312.11048 54.20417,221.39968 104.22656,150.47656 129.21728,115.04404 161.2999,84.694574 198.17773,63.478516 234.99126,42.299455 277.08124,30.161755 318.74805,30 Z m -0.45703,69.539062 c -76.01924,1.266418 -146.42623,40.964488 -192.26563,99.212888 -45.536394,57.86337 -66.261721,131.03358 -65.886718,202.6543 0.359634,68.68565 20.079774,138.64488 62.841798,194.86328 43.02705,56.56682 108.9127,96.58739 181.66992,101.54492 39.3105,2.67854 78.60035,-4.96417 114.05273,-20.91211 35.41057,-15.92912 66.54664,-39.87071 91.56836,-68.86328 50.07325,-58.01965 73.79853,-133.96364 74.09571,-208.57617 C 584.65671,326.77322 562.77062,252.62009 515.5,194.82422 491.87835,165.94298 462.33263,141.68517 428.45117,124.86328 394.5319,108.02262 356.66844,98.899726 318.29102,99.539062 Z m 1,59.990238 c 28.13902,-0.46878 56.81008,6.33296 82.47656,19.07617 25.70428,12.76198 48.79316,31.58894 67.28906,54.20312 36.96447,45.19497 55.55096,106.05538 55.31055,166.41602 -0.24664,61.92422 -20.38429,124.26744 -59.51953,169.61328 -19.58252,22.69018 -43.91074,41.26791 -70.75977,53.3457 -26.80721,12.05898 -56.55888,17.73194 -85.35937,15.76953 -52.94849,-3.6078 -104.73971,-34.29141 -137.99219,-78.00781 -33.51751,-44.06482 -50.29954,-101.54371 -50.59961,-158.85351 -0.31267,-59.71646 17.35167,-119.88619 53.03906,-165.23438 35.38439,-44.96315 90.81371,-75.40685 146.11524,-76.32812 z" id="path2623" /></svg:g><svg:g id="path856"><svg:path style="color:#000000;clip-rule:nonzero;fill:#1a5fb4;fill-rule:nonzero;stroke-linecap:round;stroke-linejoin:round;-inkscape-stroke:none;shape-rendering:auto" d="M 514.73047,-19.398437 C 493.63458,-18.966461 473.17025,-7.2812184 463.03711,12.423828 402.04195,131.03585 333.05692,245.54522 256.70508,354.9043 176.1476,470.28712 87.380656,579.94635 -8.6894531,682.77344 -18.061585,692.80475 -23.229625,707.10691 -21.578125,721 c 1.6515,13.89309 10.08401,26.65791 21.62695312,34.18555 L 89.6875,813.64258 c 23.14361,15.09293 58.4551,4.74254 69.96094,-20.22461 C 218.52489,665.6587 289.13831,543.29338 370.30273,428.39844 449.87047,315.76375 539.59405,210.28818 638.00195,113.67578 649.21557,102.66676 656.29141,86.154781 653.97266,69.609375 651.65391,53.063969 640.18686,39.016825 626.24414,31.597656 l -83.26562,-44.30664 c -8.93932,-4.756769 -18.65901,-6.885807 -28.24805,-6.689453 z m 1.15234,60.236328 71.88672,38.253906 C 490.03324,175.99449 400.70911,281.36668 321.29687,393.78125 240.64644,507.94859 170.26942,629.32684 111.03125,755.93164 L 45.078125,712.91992 C 139.25624,611.13403 226.51587,502.95474 305.90039,389.25195 383.58487,277.98414 453.77998,161.49596 515.88281,40.837891 Z" id="path2629" /></svg:g></svg:svg>
